X: 1609
T: Rast Örnek-öz 
C: Hüseyin Sadettin Arel
O: Turkey
F: http://compmusic.upf.edu/node/140
N: rast--ornek-oz--sofyan--1--huseyin_sadettin_arel
N: makam= rast
N: form= ornek-oz
N: usul= sofyan = 4/4
M: 4/4
L: 1/16
K: C _1/4B ^f  
Q: 1/4=60
%%MIDI tuningsystem comma53
G16  | A4 G4 F4 G4  | A2B2 G4 c4 B4  | A8 B4 z4  | \
w:  Rast   |  Rast   |  Rast   |  Rast   | 
c2d2 c4 e4 d4  | g4 f2e2 d4 c4  | 
w:  Rast   |  Rast   | 
B6G2 A3c B2A2  | G12 z4  | |


